static/img/docs/concepts/timestampReject.svg

<?xml version="1.0" encoding="UTF-8" standalone="no"?> <!-- Created with Vectornator for iOS (http://vectornator.io/) --><!DOCTYPE svg PUBLIC "-//W3C//DTD SVG 1.1//EN" "http://www.w3.org/Graphics/SVG/1.1/DTD/svg11.dtd">
<svg height="100%" style="fill-rule:evenodd;clip-rule:evenodd;stroke-linecap:round;stroke-linejoin:round;" xmlns:xlink="http://www.w3.org/1999/xlink" xmlns="http://www.w3.org/2000/svg" xml:space="preserve" width="100%" xmlns:vectornator="http://vectornator.io" version="1.1" viewBox="0 0 127.575 113.4">
<metadata>
<vectornator:setting key="DisplayWhiteBackground" value="0"/>
<vectornator:setting key="RulersVisible" value="1"/>
<vectornator:setting key="SnapToEdges" value="0"/>
<vectornator:setting key="Units" value="Millimeters"/>
<vectornator:setting key="DynamicGuides" value="1"/>
<vectornator:setting key="SnapToPoints" value="0"/>
<vectornator:setting key="CMYKEnabledKey" value="0"/>
<vectornator:setting key="SnapToGrid" value="0"/>
<vectornator:setting key="SnapToGuides" value="1"/>
<vectornator:setting key="GridSpacing" value="36"/>
</metadata>
<defs>
<linearGradient y1="93.6252" id="LinearGradient" x1="29.5296" y2="73.9473" x2="29.5296" gradientUnits="userSpaceOnUse" gradientTransform="matrix(1 -2.22045e-16 2.22045e-16 1 8.12535 -17.7397)">
<stop stop-color="#d14671" offset="0"/>
<stop stop-color="#ffffff" offset="1"/>
</linearGradient>
</defs>
<g id="layer1 copy" vectornator:layerName="layer1 copy">
<path d="M44.9095+8.16831L85.0445+8.16831C85.5892+8.16831+86.0307+8.61725+86.0307+9.17106L86.0307+94.2355C86.0307+94.7893+85.5892+95.2382+85.0445+95.2382L44.9095+95.2382C44.3649+95.2382+43.9234+94.7893+43.9234+94.2355L43.9234+9.17106C43.9234+8.61726+44.3649+8.16831+44.9095+8.16831Z" opacity="1" fill="#464353"/>
<text x="0" font-family="sans-serif" y="0" text-anchor="middle" vectornator:text="Table" fill="#ffffff" font-size="5" vectornator:width="54.1965" opacity="1" transform="matrix(1 0 0 1 36.1538 13.9867)">
<tspan x="27.0982" y="5" textLength="12.5073">
Table</tspan>
</text>
<path d="M39.094+93.8917L39.3907+93.573L41.792+90.9991L42.0025+90.7719C42.0313+90.7405+42.0336+90.7041+42.0089+90.6714C41.9842+90.6387+41.9346+90.6125+41.8718+90.5989C41.8427+90.5927+41.8117+90.5895+41.7803+90.5894L40.3526+90.5828C40.2168+90.5821+40.1061+90.5251+40.1047+90.4551L40.0663+84.1451C40.0659+84.0751+39.956+84.0177+39.8202+84.0165L37.8042+84.0072C37.6677+84.0066+37.5574+84.0631+37.5579+84.1335L37.5962+90.4435C37.5957+90.5131+37.4867+90.569+37.3516+90.5689L35.8921+90.5621C35.8607+90.5619+35.8297+90.5649+35.8007+90.5708C35.738+90.5838+35.6888+90.6097+35.6646+90.6422C35.6404+90.6748+35.6434+90.7112+35.6729+90.7429L35.8893+90.9717L38.3474+93.5682L38.6512+93.8902C38.6934+93.9337+38.7795+93.9614+38.8734+93.9617C38.9672+93.962+39.0527+93.9349+39.094+93.8917Z" opacity="1" fill="#d14671"/>
<path d="M37.6549+83.1589L37.6549+48.6353C37.6549+48.1668+37.6671+47.787+37.6822+47.787L39.9921+47.787C40.0072+47.787+40.0193+48.1668+40.0193+48.6353L40.0193+83.1589C40.0193+83.6274+40.0072+84.0072+39.9921+84.0072L37.6822+84.0072C37.6671+84.0072+37.6549+83.6274+37.6549+83.1589Z" opacity="1" fill="url(#LinearGradient)"/>
<path stroke="#61cfee" stroke-width="0.5" d="M49.9262+48.1347L81.7977+48.1347C82.2302+48.1347+82.5808+48.3533+82.5808+48.6229L82.5808+90.0325C82.5808+90.3021+82.2302+90.5207+81.7977+90.5207L49.9262+90.5207C49.4937+90.5207+49.1431+90.3021+49.1431+90.0325L49.1431+48.6229C49.1431+48.3533+49.4937+48.1347+49.9262+48.1347Z" fill="#5f5e67" stroke-linecap="round" opacity="1" stroke-linejoin="round"/>
<path d="M53.0781+52.3464L78.6458+52.3464C78.9927+52.3464+79.274+52.3729+79.274+52.4056L79.274+57.425C79.274+57.4577+78.9927+57.4841+78.6458+57.4841L53.0781+57.4841C52.7312+57.4841+52.4499+57.4577+52.4499+57.425L52.4499+52.4056C52.4499+52.3729+52.7312+52.3464+53.0781+52.3464Z" fill-opacity="0.204004" fill="#d14671" opacity="1"/>
<path d="M53.0781+58.6341L78.6458+58.6341C78.9927+58.6341+79.274+58.6606+79.274+58.6933L79.274+63.7127C79.274+63.7454+78.9927+63.7719+78.6458+63.7719L53.0781+63.7719C52.7312+63.7719+52.4499+63.7454+52.4499+63.7127L52.4499+58.6933C52.4499+58.6606+52.7312+58.6341+53.0781+58.6341Z" fill-opacity="0.404088" fill="#d14671" opacity="1"/>
<path d="M53.0781+64.7366L78.6458+64.7366C78.9927+64.7366+79.274+64.7631+79.274+64.7958L79.274+69.8152C79.274+69.8479+78.9927+69.8744+78.6458+69.8744L53.0781+69.8744C52.7312+69.8744+52.4499+69.8479+52.4499+69.8152L52.4499+64.7958C52.4499+64.7631+52.7312+64.7366+53.0781+64.7366Z" fill-opacity="0.576521" fill="#d14671" opacity="1"/>
<path d="M53.0781+71.0243L78.6458+71.0243C78.9927+71.0243+79.274+71.0508+79.274+71.0835L79.274+76.1029C79.274+76.1356+78.9927+76.1621+78.6458+76.1621L53.0781+76.1621C52.7312+76.1621+52.4499+76.1356+52.4499+76.1029L52.4499+71.0835C52.4499+71.0508+52.7312+71.0243+53.0781+71.0243Z" fill-opacity="0.690555" fill="#d14671" opacity="1"/>
<path d="M53.1356+77.1621L78.7033+77.1621C79.0502+77.1621+79.3315+77.1886+79.3315+77.2213L79.3315+82.2407C79.3315+82.2733+79.0502+82.2998+78.7033+82.2998L53.1356+82.2998C52.7887+82.2998+52.5074+82.2733+52.5074+82.2407L52.5074+77.2213C52.5074+77.1886+52.7887+77.1621+53.1356+77.1621Z" fill-opacity="0.84209" fill="#d14671" opacity="1"/>
<path d="M53.1356+83.4498L78.7033+83.4498C79.0502+83.4498+79.3315+83.4763+79.3315+83.509L79.3315+88.5284C79.3315+88.5611+79.0502+88.5876+78.7033+88.5876L53.1356+88.5876C52.7887+88.5876+52.5074+88.5611+52.5074+88.5284L52.5074+83.509C52.5074+83.4763+52.7887+83.4498+53.1356+83.4498Z" opacity="1" fill="#d14671"/>
<text x="0" font-family="sans-serif" y="0" text-anchor="middle" vectornator:text="designated&#xA;timestamp&#xA;column" fill="#ffffff" font-size="5" vectornator:width="54.1965" opacity="1" transform="matrix(1 0 0 1 37.8371 29.3312)">
<tspan x="27.0982" y="5" textLength="24.4653">
designated
</tspan>
<tspan x="27.0982" y="11" textLength="23.0615">
timestamp
</tspan>
<tspan x="27.0982" y="17" textLength="16.1182">
column</tspan>
</text>
<path d="M92.6618+92.6694L118.229+92.6694C118.576+92.6694+118.858+92.6959+118.858+92.7285L118.858+97.7479C118.858+97.7806+118.576+97.8071+118.229+97.8071L92.6618+97.8071C92.3148+97.8071+92.0336+97.7806+92.0336+97.7479L92.0336+92.7285C92.0336+92.6959+92.3149+92.6694+92.6618+92.6694Z" fill-opacity="0.204004" fill="#d14671" opacity="1"/>
<text x="0" font-family="sans-serif" y="0" text-anchor="middle" vectornator:text="Time" fill="#ffffff" font-size="5" vectornator:width="27.0982" opacity="1" transform="matrix(1 0 0 1 8.55016 69.8744)">
<tspan x="13.5491" y="5" textLength="10.9277">
Time</tspan>
</text>
<path d="M74.3925+95.4951L74.8285+95.7918L78.35+98.1931L78.6607+98.4036C78.7038+98.4324+78.7535+98.4347+78.7983+98.41C78.843+98.3853+78.8789+98.3358+78.8974+98.2729C78.9059+98.2439+78.9103+98.2128+78.9105+98.1814L78.9195+96.7537C78.9204+96.6179+78.9984+96.5072+79.0942+96.5058L87.7271+96.4674C87.8229+96.467+87.9014+96.3571+87.903+96.2213L87.9158+94.2053C87.9166+94.0688+87.8393+93.9585+87.743+93.959L79.1101+93.9973C79.0148+93.9968+78.9384+93.8878+78.9386+93.7527L78.9478+92.2932C78.9481+92.2618+78.944+92.2308+78.9359+92.2018C78.9181+92.1391+78.8827+92.0899+78.8382+92.0657C78.7936+92.0415+78.7438+92.0445+78.7004+92.074L78.3874+92.2904L74.8351+94.7485L74.3946+95.0523C74.335+95.0946+74.2971+95.1806+74.2967+95.2745C74.2963+95.3683+74.3334+95.4538+74.3925+95.4951Z" opacity="1" fill="#d14671"/>
<path d="M62.2096+91.0789L69.1364+98.0057C69.2304+98.0997+69.2994+98.1831+69.2905+98.1919L67.9307+99.5518C67.9218+99.5606+67.8384+99.4916+67.7444+99.3976L60.8177+92.4708C60.7237+92.3768+60.6546+92.2934+60.6635+92.2846L62.0234+90.9247C62.0322+90.9159+62.1156+90.9849+62.2096+91.0789Z" opacity="1" fill="#f8004d"/>
<path d="M69.1364+92.4708L62.2096+99.3976C62.1156+99.4916+62.0322+99.5606+62.0234+99.5518L60.6635+98.1919C60.6546+98.1831+60.7237+98.0997+60.8177+98.0057L67.7444+91.0789C67.8384+90.9849+67.9218+90.9159+67.9307+90.9247L69.2905+92.2846C69.2994+92.2934+69.2304+92.3768+69.1364+92.4708Z" opacity="1" fill="#f8004d"/>
<text x="0" font-family="sans-serif" y="0" text-anchor="middle" vectornator:text="INSERT&#x20;rejected" fill="#d14671" font-size="5" vectornator:width="54.1965" opacity="1" transform="matrix(1 0 0 1 58.9324 102.568)">
<tspan x="27.0982" y="5" textLength="37.3364">
INSERT rejected</tspan>
</text>
<text x="0" font-family="sans-serif" y="0" text-anchor="middle" vectornator:text="older&#x20;timestamp&#x20;value" fill="#ffffff" font-size="5" vectornator:width="33.632" opacity="1" transform="matrix(1 0 0 1 88.6296 73.9713)">
<tspan x="17.5106" y="5" textLength="12.5073">
older </tspan>
<tspan x="17.5106" y="11" textLength="24.4507">
timestamp </tspan>
<tspan x="16.816" y="17" textLength="11.9531">
value</tspan>
</text>
</g>
</svg>

<svg height="100%" xmlns="http://www.w3.org/2000/svg" xml:space="preserve" width="100%" xmlns:vectornator="http://vectornator.io" version="1.1" viewBox="0 0 127.575 113.4" fill-rule="evenodd" clip-rule="evenodd" stroke-linecap="round" stroke-linejoin="round"><defs><linearGradient y1="93.625" id="LinearGradient" x1="29.53" y2="73.947" x2="29.53" gradientUnits="userSpaceOnUse" gradientTransform="translate(8.125 -17.74)"><stop stop-color="#d14671" offset="0"/><stop stop-color="#fff" offset="1"/></linearGradient></defs><g id="layer1 copy" vectornator:layerName="layer1 copy"><path d="M44.91 8.168h40.135c.544 0 .986.45.986 1.003v85.065a.995.995 0 01-.987 1.002H44.91a.994.994 0 01-.987-1.002V9.17a.995.995 0 01.986-1.003z" opacity="1" fill="#464353"/><text x="0" font-family="sans-serif" y="0" text-anchor="middle" vectornator:text="Table" fill="#fff" font-size="5" vectornator:width="54.197" opacity="1" transform="translate(36.154 13.987)"><tspan x="27.098" y="5" textLength="12.507">Table</tspan></text><path d="M39.094 93.892l.297-.319 2.401-2.574.21-.227c.03-.032.032-.068.007-.1a.23.23 0 00-.137-.073.449.449 0 00-.092-.01l-1.427-.006c-.136 0-.247-.058-.248-.128l-.039-6.31c0-.07-.11-.127-.246-.129l-2.016-.009c-.136 0-.247.056-.246.126l.038 6.31c0 .07-.11.126-.244.126l-1.46-.007a.447.447 0 00-.091.009c-.063.013-.112.039-.136.071-.025.033-.022.07.008.1l.216.23 2.458 2.596.304.322c.042.044.128.071.222.072.094 0 .18-.027.221-.07z" opacity="1" fill="#d14671"/><path d="M37.655 83.159V48.635c0-.468.012-.848.027-.848h2.31c.015 0 .027.38.027.848V83.16c0 .468-.012.848-.027.848h-2.31c-.015 0-.027-.38-.027-.848z" opacity="1" fill="url(#LinearGradient)"/><path stroke="#61cfee" stroke-width=".5" d="M49.926 48.135h31.872c.432 0 .783.218.783.488v41.41c0 .27-.35.488-.783.488H49.926c-.432 0-.783-.219-.783-.489v-41.41c0-.269.35-.487.783-.487z" fill="#5f5e67" stroke-linecap="round" opacity="1" stroke-linejoin="round"/><path d="M53.078 52.346h25.568c.347 0 .628.027.628.06v5.019c0 .033-.281.06-.628.06H53.078c-.347 0-.628-.027-.628-.06v-5.02c0-.032.281-.059.628-.059z" fill-opacity=".204" fill="#d14671" opacity="1"/><path d="M53.078 58.634h25.568c.347 0 .628.027.628.06v5.019c0 .032-.281.059-.628.059H53.078c-.347 0-.628-.027-.628-.06v-5.019c0-.032.281-.059.628-.059z" fill-opacity=".404" fill="#d14671" opacity="1"/><path d="M53.078 64.737h25.568c.347 0 .628.026.628.059v5.02c0 .032-.281.058-.628.058H53.078c-.347 0-.628-.026-.628-.059v-5.02c0-.032.281-.058.628-.058z" fill-opacity=".577" fill="#d14671" opacity="1"/><path d="M53.078 71.024h25.568c.347 0 .628.027.628.06v5.019c0 .033-.281.06-.628.06H53.078c-.347 0-.628-.027-.628-.06v-5.02c0-.032.281-.059.628-.059z" fill-opacity=".691" fill="#d14671" opacity="1"/><path d="M53.136 77.162h25.567c.347 0 .629.027.629.06v5.019c0 .032-.282.059-.629.059H53.136c-.347 0-.629-.027-.629-.06v-5.019c0-.032.282-.059.629-.059z" fill-opacity=".842" fill="#d14671" opacity="1"/><path d="M53.136 83.45h25.567c.347 0 .629.026.629.059v5.02c0 .032-.282.059-.629.059H53.136c-.347 0-.629-.027-.629-.06V83.51c0-.033.282-.06.629-.06z" opacity="1" fill="#d14671"/><text x="0" font-family="sans-serif" y="0" text-anchor="middle" vectornator:text="designated timestamp column" fill="#fff" font-size="5" vectornator:width="54.197" opacity="1" transform="translate(37.837 29.331)"><tspan x="27.098" y="5" textLength="24.465">designated </tspan> <tspan x="27.098" y="11" textLength="23.061"> timestamp </tspan> <tspan x="27.098" y="17" textLength="16.118"> column</tspan></text><path d="M92.662 92.67h25.567c.347 0 .629.026.629.058v5.02c0 .033-.282.06-.629.06H92.662c-.347 0-.628-.027-.628-.06v-5.02c0-.032.28-.059.628-.059z" fill-opacity=".204" fill="#d14671" opacity="1"/><text x="0" font-family="sans-serif" y="0" text-anchor="middle" vectornator:text="Time" fill="#fff" font-size="5" vectornator:width="27.098" opacity="1" transform="translate(8.55 69.874)"><tspan x="13.549" y="5" textLength="10.928">Time</tspan></text><path d="M74.392 95.495l.437.297 3.521 2.401.31.21a.128.128 0 00.138.007.226.226 0 00.1-.137.334.334 0 00.013-.092l.008-1.427c.001-.136.08-.247.175-.248l8.633-.039c.096 0 .174-.11.176-.246l.013-2.016c0-.136-.077-.246-.173-.246l-8.633.038c-.095 0-.172-.11-.171-.244l.009-1.46a.33.33 0 00-.012-.091.22.22 0 00-.098-.136.128.128 0 00-.138.008l-.313.216-3.552 2.459-.44.303c-.06.043-.098.129-.098.222 0 .094.036.18.096.221z" opacity="1" fill="#d14671"/><path d="M62.21 91.079l6.926 6.927c.094.094.163.177.154.186l-1.36 1.36c-.008.009-.092-.06-.186-.154l-6.926-6.927c-.094-.094-.163-.178-.154-.186l1.36-1.36c.008-.01.092.06.186.154z" opacity="1" fill="#f8004d"/><path d="M69.136 92.47l-6.926 6.928c-.094.094-.178.163-.187.154l-1.36-1.36c-.008-.009.06-.092.155-.186l6.926-6.927c.094-.094.178-.163.187-.154l1.36 1.36c.008.008-.06.092-.155.186z" opacity="1" fill="#f8004d"/><text x="0" font-family="sans-serif" y="0" text-anchor="middle" vectornator:text="INSERT rejected" fill="#d14671" font-size="5" vectornator:width="54.197" opacity="1" transform="translate(58.932 102.568)"><tspan x="27.098" y="5" textLength="37.336">INSERT rejected</tspan></text><text x="0" font-family="sans-serif" y="0" text-anchor="middle" vectornator:text="older timestamp value" fill="#fff" font-size="5" vectornator:width="33.632" opacity="1" transform="translate(88.63 73.971)"><tspan x="17.511" y="5" textLength="12.507">older </tspan> <tspan x="17.511" y="11" textLength="24.451"> timestamp </tspan> <tspan x="16.816" y="17" textLength="11.953"> value</tspan></text></g></svg>
